img/fm_logo.svg

<svg width="226" height="76" viewBox="0 0 226 76" fill="none" xmlns="http://www.w3.org/2000/svg">
<path d="M37.5782 68.4373C37.5782 68.4373 11.0176 60.5372 11.0176 21.8993V7.09802H64.1086V21.8993C64.1086 59.1902 37.5782 68.4373 37.5782 68.4373Z" fill="#4FB84F"/>
<path d="M78.8794 36.7914V15.8607H91.683V17.3741C91.685 17.7523 91.612 18.1271 91.4682 18.4769C91.3244 18.8267 91.1126 19.1445 90.8452 19.4119C90.5778 19.6793 90.26 19.8911 89.9102 20.0349C89.5605 20.1787 89.1856 20.2517 88.8075 20.2497H83.9494V24.6689H90.336V26.1823C90.336 26.953 90.0299 27.6921 89.4849 28.237C88.94 28.7819 88.2009 29.0881 87.4302 29.0881H83.9494V36.8671H78.8794V36.7914Z" fill="black"/>
<path d="M99.7042 25.3197H101.929C102.285 25.3427 102.641 25.2928 102.977 25.173C103.313 25.0533 103.62 24.8663 103.881 24.6235C104.129 24.3721 104.319 24.0702 104.439 23.7385C104.559 23.4068 104.607 23.0531 104.577 22.7015C104.577 21.5361 104.184 20.7946 103.352 20.4919C102.726 20.2658 102.064 20.163 101.399 20.1892H99.674V25.3046L99.7042 25.3197ZM94.5889 36.7915V15.8608H101.884C103.263 15.8006 104.643 15.9641 105.97 16.3451C107.132 16.7637 108.123 17.557 108.785 18.6001C109.509 19.7371 109.873 21.0665 109.829 22.4139C109.829 23.5742 109.532 24.7151 108.966 25.7283C108.485 26.7467 107.675 27.5731 106.666 28.0741C106.953 28.4766 107.216 28.8961 107.453 29.3303L111.539 36.6704H105.834L102.095 29.6632H99.7042V36.7461H94.5889V36.7915Z" fill="black"/>
<path d="M113.87 36.7914V15.8607H126.976V20.2497H118.986V24.0635H125.372V28.4524H118.986V32.4025H127.37V36.7914H113.87Z" fill="black"/>
<path d="M130.669 36.7914V15.8607H143.775V20.2497H135.784V24.0635H142.171V28.4524H135.784V32.4025H144.169V36.7914H130.669Z" fill="black"/>
<path d="M152.599 32.4026H154.718C155.485 32.4547 156.256 32.3471 156.98 32.0866C157.704 31.8261 158.366 31.4184 158.925 30.8891C160 29.6299 160.543 28.0014 160.438 26.3489C160.5 25.5295 160.398 24.706 160.138 23.9265C159.878 23.147 159.466 22.427 158.925 21.8086C158.373 21.2836 157.718 20.8782 157.002 20.6178C156.286 20.3574 155.523 20.2476 154.763 20.2952H152.629V32.4026H152.599ZM147.468 36.7915V15.8608H154.899C156.334 15.7826 157.771 15.9882 159.127 16.4661C160.482 16.9439 161.73 17.6846 162.799 18.6455C163.795 19.6424 164.569 20.8387 165.07 22.156C165.571 23.4732 165.787 24.8815 165.705 26.2883C165.789 27.7067 165.574 29.127 165.074 30.4568C164.573 31.7866 163.798 32.9962 162.799 34.0068C161.73 34.9671 160.482 35.7072 159.126 36.185C157.771 36.6628 156.334 36.8689 154.899 36.7915H147.468Z" fill="black"/>
<path d="M173.212 26.1975C173.133 27.8623 173.709 29.4916 174.816 30.7378C175.318 31.3127 175.94 31.7706 176.638 32.0791C177.336 32.3877 178.093 32.5394 178.857 32.5236C179.62 32.5436 180.379 32.3938 181.078 32.085C181.777 31.7761 182.398 31.316 182.897 30.7378C183.99 29.4836 184.564 27.8599 184.502 26.1975C184.536 25.4102 184.411 24.6241 184.135 23.8857C183.86 23.1474 183.439 22.472 182.897 21.8994C182.384 21.3449 181.758 20.9068 181.061 20.6144C180.364 20.3221 179.612 20.1822 178.857 20.2043C178.101 20.1782 177.348 20.3162 176.65 20.6089C175.953 20.9015 175.327 21.3417 174.816 21.8994C173.738 23.0661 173.162 24.6098 173.212 26.1975ZM167.915 26.1975C167.884 24.7975 168.137 23.4057 168.657 22.1055C169.177 20.8053 169.954 19.6233 170.941 18.6304C171.974 17.6159 173.204 16.8239 174.555 16.3033C175.906 15.7827 177.349 15.5446 178.796 15.6035C180.241 15.5551 181.682 15.7982 183.031 16.3182C184.381 16.8382 185.612 17.6246 186.651 18.6304C187.638 19.6233 188.415 20.8053 188.935 22.1055C189.455 23.4057 189.708 24.7975 189.678 26.1975C189.722 27.6355 189.476 29.0677 188.956 30.4092C188.436 31.7506 187.652 32.974 186.651 34.0068C185.115 35.535 183.16 36.573 181.034 36.9892C178.908 37.4055 176.706 37.1812 174.708 36.3448C172.709 35.5085 171.004 34.0977 169.808 32.2912C168.612 30.4848 167.98 28.3639 167.99 26.1975" fill="black"/>
<path d="M192.205 36.7914L193.93 15.8607H199.5L202.527 24.7143L203.571 28.1952C203.964 26.8028 204.312 25.6223 204.615 24.7143L207.642 15.8607H213.196L214.891 36.7914H209.761L209.11 27.3628C209.11 26.8936 209.11 26.3639 209.11 25.8493C209.083 25.3856 209.083 24.9207 209.11 24.457V23.9424C208.641 25.4558 208.247 26.5909 207.945 27.4536L205.735 33.5073H201.346L199.121 27.4536L197.956 23.9424C198.047 25.111 198.047 26.285 197.956 27.4536L197.305 36.8822H192.205V36.7914Z" fill="black"/>
<path d="M52.9697 22.0204H31.5093V34.3094H52.9697V38.0022C52.9697 44.2072 51.2292 49.2469 41.7703 49.2923H31.5093V65.5314C33.4038 66.7702 35.4352 67.7859 37.563 68.5583C37.563 68.5583 64.1539 59.281 64.1539 21.9447V10.7454C64.1539 16.9504 61.3692 21.8993 52.9091 22.0204" fill="#045433"/>
<path d="M78.4409 57.8432L79.6517 43.163H83.5563L85.6902 49.3832L86.4318 51.8046C86.6891 50.8058 86.9464 50.0339 87.1582 49.3832L89.2922 43.163H93.1968L94.3622 57.8432H90.8056L90.3818 51.2447C90.3573 50.8667 90.3573 50.4876 90.3818 50.1096V48.7324C90.0338 49.7615 89.7765 50.5939 89.5495 51.1993L88.036 55.452H85.0092L83.4958 51.1993L82.6634 48.7324C82.6634 49.6404 82.6634 50.4577 82.6634 51.1993L82.2245 57.7978H78.4409V57.8432Z" fill="black"/>
<path d="M96.1479 50.4124C96.1322 49.4191 96.3217 48.4333 96.7045 47.5167C97.0873 46.6 97.6552 45.7722 98.3726 45.0851C99.8783 43.7111 101.843 42.9493 103.881 42.9493C105.92 42.9493 107.885 43.7111 109.39 45.0851C110.1 45.7761 110.659 46.6057 111.034 47.5222C111.409 48.4386 111.591 49.4224 111.57 50.4124C111.592 51.4249 111.41 52.4316 111.036 53.3727C110.661 54.3138 110.102 55.1701 109.39 55.891C108.317 56.9942 106.937 57.7497 105.429 58.0597C103.921 58.3697 102.355 58.2199 100.933 57.6296C99.5111 57.0394 98.2992 56.036 97.4542 54.7492C96.6092 53.4624 96.1699 51.9516 96.1933 50.4124H96.1479ZM99.886 50.4124C99.8537 51.5628 100.259 52.6825 101.021 53.5452C101.374 53.955 101.814 54.2806 102.309 54.498C102.804 54.7154 103.341 54.819 103.881 54.8013C104.421 54.8127 104.956 54.7062 105.45 54.4892C105.944 54.2722 106.385 53.9501 106.742 53.5452C107.504 52.6825 107.909 51.5628 107.877 50.4124C107.9 49.8576 107.811 49.3037 107.616 48.7838C107.422 48.2638 107.124 47.7883 106.742 47.3855C106.379 46.9908 105.936 46.6775 105.443 46.4662C104.95 46.2549 104.418 46.1505 103.881 46.1596C103.344 46.1455 102.811 46.2478 102.317 46.4594C101.823 46.671 101.381 46.9869 101.021 47.3855C100.63 47.782 100.327 48.2565 100.131 48.778C99.9355 49.2996 99.852 49.8564 99.886 50.4124Z" fill="black"/>
<path d="M113.825 57.8432V43.1629H119.212C120.489 43.1002 121.752 43.4504 122.814 44.1618C123.262 44.4901 123.619 44.9254 123.855 45.4278C124.09 45.9302 124.195 46.4836 124.161 47.0373C124.168 47.6583 124.015 48.2706 123.719 48.8162C123.422 49.3618 122.991 49.8226 122.466 50.155C122.827 50.2444 123.166 50.4058 123.462 50.6295C123.758 50.8531 124.007 51.1345 124.192 51.4565C124.703 52.3164 124.883 53.3328 124.699 54.316C124.515 55.2992 123.98 56.1818 123.193 56.7989C122 57.5547 120.608 57.9343 119.197 57.8886H113.825V57.8432ZM117.381 48.8534H119.243C119.422 48.8703 119.602 48.8434 119.768 48.7748C119.934 48.7062 120.081 48.5981 120.196 48.4599C120.431 48.1988 120.555 47.8573 120.544 47.5065C120.55 47.3396 120.521 47.1733 120.462 47.0174C120.402 46.8615 120.312 46.719 120.196 46.5984C119.927 46.3579 119.573 46.2328 119.212 46.2503H117.427V48.8534H117.381ZM117.381 54.8012H119.561C119.776 54.8191 119.993 54.7905 120.197 54.7174C120.4 54.6443 120.586 54.5284 120.741 54.3774C121.001 54.0744 121.141 53.6869 121.135 53.2878C121.144 52.8882 121.003 52.4996 120.741 52.1981C120.587 52.0445 120.402 51.9258 120.199 51.85C119.995 51.7743 119.777 51.7433 119.561 51.7592H117.427V54.7861L117.381 54.8012Z" fill="black"/>
<path d="M127.127 57.8432V43.163H130.729V57.8432H127.127Z" fill="black"/>
<path d="M133.756 57.8432V43.163H137.358V54.7558H143.336V57.7827L133.756 57.8432Z" fill="black"/>
<path d="M145.077 57.8432V43.163H154.279V46.1898H148.679V48.8383H153.219V51.8652H148.679V54.6347H154.581V57.6616L145.077 57.8432Z" fill="black"/>
</svg>

<svg width="226" height="76" fill="none" xmlns="http://www.w3.org/2000/svg"><path d="M37.578 68.437s-26.56-7.9-26.56-46.538V7.098h53.09v14.801c0 37.291-26.53 46.538-26.53 46.538Z" fill="#4FB84F"/><path d="M78.88 36.791v-20.93h12.803v1.513a2.86 2.86 0 0 1-2.876 2.876H83.95v4.419h6.387v1.513a2.905 2.905 0 0 1-2.906 2.906h-3.48v7.78h-5.07v-.077ZM99.704 25.32h2.225a2.616 2.616 0 0 0 1.952-.697 2.443 2.443 0 0 0 .696-1.922c0-1.165-.393-1.906-1.225-2.21a5.148 5.148 0 0 0-1.953-.302h-1.725v5.116l.03.015ZM94.59 36.79v-20.93h7.295c1.379-.06 2.759.103 4.086.484a5.57 5.57 0 0 1 2.815 2.255 6.694 6.694 0 0 1 1.044 3.814c0 1.16-.297 2.301-.863 3.314a5.005 5.005 0 0 1-2.3 2.346c.287.403.55.822.787 1.256l4.086 7.34h-5.705l-3.739-7.007h-2.39v7.083h-5.116v.045ZM113.87 36.791v-20.93h13.106v4.389h-7.99v3.814h6.386v4.388h-6.386v3.95h8.384v4.39h-13.5ZM130.669 36.791v-20.93h13.106v4.389h-7.991v3.814h6.387v4.388h-6.387v3.95h8.385v4.39h-13.5ZM152.599 32.403h2.119a5.57 5.57 0 0 0 4.207-1.514 6.37 6.37 0 0 0 1.513-4.54 6.182 6.182 0 0 0-1.513-4.54 5.536 5.536 0 0 0-4.162-1.514h-2.134v12.108h-.03Zm-5.131 4.389V15.86h7.431a10.931 10.931 0 0 1 7.9 2.784 9.993 9.993 0 0 1 2.906 7.643 10.13 10.13 0 0 1-2.906 7.718 10.933 10.933 0 0 1-7.9 2.785h-7.431ZM173.212 26.198a6.381 6.381 0 0 0 1.604 4.54 5.221 5.221 0 0 0 4.041 1.786 5.163 5.163 0 0 0 4.04-1.786 6.54 6.54 0 0 0 1.605-4.54 5.878 5.878 0 0 0-1.605-4.299 5.288 5.288 0 0 0-4.04-1.695 5.24 5.24 0 0 0-4.041 1.695 6.053 6.053 0 0 0-1.604 4.299Zm-5.297 0a10.4 10.4 0 0 1 3.026-7.568 10.595 10.595 0 0 1 7.855-3.026 10.775 10.775 0 0 1 7.855 3.026 10.416 10.416 0 0 1 3.027 7.568 10.744 10.744 0 0 1-3.027 7.809 10.946 10.946 0 0 1-11.943 2.338 10.94 10.94 0 0 1-6.718-10.147M192.205 36.791l1.725-20.93h5.57l3.027 8.853 1.044 3.481a82.296 82.296 0 0 1 1.044-3.48l3.027-8.854h5.554l1.695 20.93h-5.13l-.651-9.428v-1.514a11.976 11.976 0 0 1 0-1.392v-.515a96.488 96.488 0 0 1-1.165 3.512l-2.21 6.053h-4.389l-2.225-6.053-1.165-3.512a22.614 22.614 0 0 1 0 3.512l-.651 9.428h-5.1v-.09Z" fill="#000"/><path d="M52.97 22.02H31.51v12.29h21.46v3.692c0 6.205-1.74 11.245-11.2 11.29H31.51v16.24a29.379 29.379 0 0 0 6.053 3.026s26.59-9.277 26.59-46.613v-11.2c0 6.205-2.784 11.154-11.244 11.275" fill="#045433"/><path d="m78.44 57.843 1.212-14.68h3.904l2.134 6.22.742 2.422c.257-1 .514-1.771.726-2.422l2.134-6.22h3.905l1.165 14.68h-3.556l-.424-6.598a8.774 8.774 0 0 1 0-1.135v-1.378c-.348 1.03-.606 1.862-.833 2.467l-1.513 4.253h-3.027l-1.513-4.253-.833-2.467V51.2l-.438 6.599H78.44v.045ZM96.148 50.412a7.218 7.218 0 0 1 2.225-5.327 8.172 8.172 0 0 1 11.017 0 7.21 7.21 0 0 1 2.18 5.327 7.571 7.571 0 0 1-2.18 5.479 7.684 7.684 0 0 1-8.457 1.739 7.687 7.687 0 0 1-4.74-7.218h-.045Zm3.738 0a4.54 4.54 0 0 0 1.135 3.133 3.623 3.623 0 0 0 2.86 1.256 3.705 3.705 0 0 0 2.861-1.256 4.54 4.54 0 0 0 1.135-3.133 4.149 4.149 0 0 0-1.135-3.026 3.797 3.797 0 0 0-2.861-1.226 3.722 3.722 0 0 0-2.86 1.226 3.974 3.974 0 0 0-1.135 3.026ZM113.825 57.843v-14.68h5.387a5.948 5.948 0 0 1 3.602.999 3.316 3.316 0 0 1 1.347 2.875 3.645 3.645 0 0 1-1.695 3.118 2.747 2.747 0 0 1 1.726 1.301 4.115 4.115 0 0 1-.999 5.343 7.04 7.04 0 0 1-3.996 1.09h-5.372v-.046Zm3.556-8.99h1.862a1.102 1.102 0 0 0 .953-.393 1.36 1.36 0 0 0 .348-.953 1.256 1.256 0 0 0-.348-.909 1.377 1.377 0 0 0-.984-.348h-1.785v2.603h-.046Zm0 5.948h2.18a1.514 1.514 0 0 0 1.18-.424c.26-.303.4-.69.394-1.09.009-.399-.132-.787-.394-1.089a1.522 1.522 0 0 0-1.18-.439h-2.134v3.027l-.046.015ZM127.127 57.843v-14.68h3.602v14.68h-3.602ZM133.756 57.843v-14.68h3.602v11.593h5.978v3.027l-9.58.06ZM145.077 57.843v-14.68h9.202v3.027h-5.6v2.648h4.54v3.027h-4.54v2.77h5.902v3.027l-9.504.181Z" fill="#000"/></svg>
